build/images/svg/snapchat.svg

<svg width="16" height="15" viewBox="0 0 16 15" fill="none" xmlns="http://www.w3.org/2000/svg">
  <path d="M15.9639 11.7591C15.8011 12.138 15.1127 12.4163 13.8589 12.6105C13.7944 12.6973 13.741 13.0681 13.6556 13.357C13.6048 13.5305 13.4799 13.6334 13.2766 13.6334L13.2673 13.6332C12.9737 13.6332 12.6672 13.4985 12.0532 13.4985C11.2244 13.4985 10.9388 13.6868 10.2953 14.1401C9.61303 14.6212 8.95869 15.0365 7.98194 14.9939C6.99301 15.0667 6.16867 14.467 5.70473 14.1399C5.05742 13.6836 4.77261 13.4985 3.94721 13.4985C3.35771 13.4985 2.98672 13.6456 2.73309 13.6456C2.48081 13.6456 2.38269 13.4923 2.34491 13.3639C2.26044 13.0776 2.20728 12.7013 2.14106 12.612C1.49485 12.512 0.0376341 12.2584 0.000509239 11.6101C-0.00880895 11.4413 0.110741 11.2927 0.277914 11.2651C2.45237 10.9081 3.43178 8.68167 3.47249 8.58715C3.47481 8.58166 3.47734 8.57643 3.4799 8.5711C3.59593 8.33622 3.6219 8.13952 3.55687 7.9867C3.39906 7.61598 2.71712 7.48298 2.43022 7.36979C1.68913 7.07792 1.586 6.74254 1.62985 6.51268C1.706 6.11267 2.30875 5.86652 2.66115 6.03112C2.93987 6.16141 3.1875 6.22735 3.39699 6.22735C3.55393 6.22735 3.65362 6.18983 3.70824 6.1597C3.6444 5.03982 3.48634 3.43947 3.88596 2.54575C4.94136 0.186137 7.17832 0.00277352 7.83835 0.00277352C7.86785 0.00277352 8.12401 0 8.15429 0C9.7839 0 11.3497 0.834548 12.1144 2.54425C12.5136 3.43707 12.3565 5.03082 12.2923 6.15945C12.3418 6.18662 12.4285 6.21997 12.561 6.22611C12.761 6.2172 12.9928 6.15166 13.2507 6.03112C13.4409 5.94243 13.7009 5.95443 13.8907 6.03293L13.8916 6.03324C14.1877 6.13873 14.3741 6.35157 14.3788 6.59012C14.3845 6.89387 14.1124 7.1562 13.5701 7.36976C13.5039 7.39578 13.4234 7.42134 13.3378 7.44845C13.0316 7.54524 12.569 7.69168 12.4435 7.98667C12.3785 8.13949 12.4043 8.33604 12.5204 8.57091C12.5231 8.57615 12.5256 8.58157 12.5279 8.58696C12.5685 8.68139 13.5471 10.9074 15.7225 11.2649C15.9234 11.2979 16.0714 11.5104 15.9639 11.7591Z" fill="black"/>
</svg>

<svg width="16" height="15" fill="none" xmlns="http://www.w3.org/2000/svg"><path d="M15.964 11.76c-.163.378-.851.656-2.105.85-.065.087-.118.458-.203.747-.051.174-.176.276-.38.276h-.009c-.293 0-.6-.134-1.214-.134-.829 0-1.114.188-1.758.641-.682.481-1.336.896-2.313.854-.989.073-1.813-.527-2.277-.854-.648-.456-.932-.642-1.758-.642-.59 0-.96.148-1.214.148a.371.371 0 01-.388-.282c-.085-.286-.138-.663-.204-.752-.646-.1-2.103-.354-2.14-1.002a.331.331 0 01.277-.345c2.174-.357 3.154-2.583 3.194-2.678l.008-.016c.116-.235.142-.431.077-.584-.158-.371-.84-.504-1.127-.617-.74-.292-.844-.627-.8-.857.076-.4.679-.646 1.031-.482.279.13.526.196.736.196a.64.64 0 00.311-.067c-.064-1.12-.222-2.72.178-3.614C4.941.186 7.178.003 7.838.003L8.154 0c1.63 0 3.196.835 3.96 2.544.4.893.242 2.487.178 3.615.05.028.136.061.269.067.2-.009.432-.074.69-.195a.848.848 0 01.64.002c.297.106.483.319.488.557.005.304-.267.566-.809.78a3.85 3.85 0 01-.232.078c-.306.097-.769.244-.894.539-.066.152-.04.349.076.584l.008.016c.04.094 1.02 2.32 3.194 2.678.201.033.35.245.242.494z" fill="#000"/></svg>
